X:1
T:Where Is My Boy Tonight?
T:Where Is My Boy Tonight?
T:Robert Lowry
T:Robert Lowry, 1877
T:Public Domain Courtesy of the Cyber Hymnal™
T:Public Domain Courtesy of the Cyber Hymnal™
C:Robert Lowry
Z:Public Domain
Z:Courtesy of the Cyber Hymnal™
%%score 1 ( 2 3 ) ( 4 5 )
L:1/8
Q:1/4=100
M:6/8
K:G
V:1 treble 
V:2 treble 
V:3 treble 
V:4 bass 
V:5 bass 
V:1
 B>BB c2 B | B2 A G2 (G/G/) | G>GG c2 c | B3- B2 B | B>BB c2 B | d2 c B2 G | A>DD B2 A | %7
w: 1.~Where is my wan- dering|boy to- night— The *|boy of my ten- derest|care, * The|boy that was once my|joy and light, The|child of my love and|
w: 2.~Once he was pure as|morn- ing dew, As~he *|knelt at his mo- ther’s|knee; * No|face was as bright, no|heart more true, And|none was so sweet as|
w: 3.~O could I see you|now, my boy, As *|fair as in old- en|time, * When|prat- tle and smile made|home a joy, And|life was a mer- ry|
w: 4.~Go for my wan- dering|boy to- night; Go *|search for him where you|will; * But|bring him to me with|all his blight, And|tell him I love him|
 G3- !fermata!G2 ||"^Refrain" z | z6 | z6 | z6 | z6 | z6 | z6 | z6 | z6 |] %17
w: prayer? *||||||||||
w: he. *||||||||||
w: chime! *||||||||||
w: still. *||||||||||
V:2
 z [DF][DF] z [CE][B,D] | z [CDF][CDF] z [B,DG][B,DG] | z [B,EG][B,EG] z [CEG][CEG] | z (B,DGD)B, | %4
w: ~ ~ ~ ~|~ ~ ~ ~|~ ~ ~ ~|~ * * * ~|
 z [B,D][B,D] z [CE][B,D] | z [CDF][CDF] z [B,DG][B,DG] | z [A,DF][A,DF] z [CDF][CDF] | %7
w: ~ ~ ~ ~|~ ~ ~ ~|~ ~ ~ ~|
 [B,DG]3- !fermata![B,DG]2 || !fermata![DB] | [Ec][EG][EG] [EG]2 [_EA] | %10
w: ~ *|O|where is my boy to-|
 [DB]3- [DB]2 !fermata![Dd] | [Fd][FA][FA] [EA]2 [EB] | [FA]3- [FA]2 [FA] | %13
w: night? * O|where is my boy to-|night? * My|
 [GB]2 [Gd] [GB]2 [DG]/[DG]/ | [DG][DA][GB] !fermata![Gc]2 !fermata![Gc] | %15
w: heart o’er- flows, for I|love him, he knows; O|
 [GB]>[FA]G !fermata![DA]2 [DG] | [DG]6 |] %17
w: where is my boy to-|night?|
V:3
 x6 | x6 | x6 | x6 | x6 | x6 | x6 | x5 || x | x6 | x6 | x6 | x6 | x6 | x6 | x2 G x3 | x6 |] %17
V:4
 [G,,G,]3 [G,,G,]3 | [D,,D,]3 [G,,G,]3 | E,3 C,3 | [G,,G,]3- [G,,G,]2 z | [G,,G,]3 [G,,G,]3 | %5
 [D,,D,]3 [G,,G,]3 | [D,,D,]3 [D,,D,]3 | G,3- !fermata![G,,G,]2 || !fermata!G, | %9
 [C,G,][C,G,][C,G,] [C,G,]2 [C,G,] | [G,,G,]3- [G,,G,]2 !fermata![G,B,] | %11
 [D,A,][D,D][D,D] [A,,^C]2 [A,,C] | [D,D]3- [D,D]2 [D,D] | [G,D]2 [G,B,] [G,D]2 [G,B,]/[G,B,]/ | %14
 [G,B,][F,A,][=F,D] !fermata![E,C]2 !fermata![C,E] | [D,D]>[D,C][D,B,] !fermata![D,C]2 [G,,B,] | %16
 [G,,B,]6 |] %17
V:5
 x6 | x6 | x6 | x6 | x6 | x6 | x6 | G,E,C, x2 || G, | x6 | x6 | x6 | x6 | x6 | x6 | x6 | x6 |] %17

